!!!COM: des Prez, Josquin
!!!CDT: ~1450-1521/08/27
!!!OTL: Parfons regretz
!!!AGN: Chanson
!!!SCT: NJE 29.19
!!!SCA: New Josquin Edition 29.19
!!!voices: 5
**kern	**text	**kern	**text	**kern	**text	**kern	**text	**kern	**text
*staff5	*	*staff4	*	*staff3	*	*staff2	*	*staff1	*
*Ivox	*	*Ivox	*	*Ivox	*	*Ivox	*	*Ivox	*
*I"Bassus	*	*I"Tenor	*	*I"Quintus	*	*I"Altus	*	*I"Superius	*
*I'B	*	*I'T	*	*I'Q	*	*I'Ct	*	*I'S	*
*clefF4	*	*clefGv2	*	*clefGv2	*	*clefGv2	*	*clefG2	*
*k[b-]	*	*k[b-]	*	*k[b-]	*	*k[b-]	*	*k[b-]	*
*M2/1	*	*M2/1	*	*M2/1	*	*M2/1	*	*M2/1	*
*met(C|)	*	*met(C|)	*	*met(C|)	*	*met(C|)	*	*met(C|)	*
=1-	=1-	=1-	=1-	=1-	=1-	=1-	=1-	=1-	=1-
!LO:TX:Z=4:t=Canon at the upper 8ve (B-->Q, three breves)	!	!	!	!	!	!	!	!	!
0r	.	0G	Par-	0r	.	0g	Par-	0r	.
=2	=2	=2	=2	=2	=2	=2	=2	=2	=2
0r	.	1d	-fons	0r	.	1.f	-fons	0r	.
.	.	1d	re-	.	.	.	.	.	.
.	.	.	.	.	.	4e\	.	.	.
.	.	.	.	.	.	4d\	.	.	.
=3	=3	=3	=3	=3	=3	=3	=3	=3	=3
0r	.	1.c	-gretz	0r	.	1e	.	0g	Par-
.	.	.	.	.	.	1e	re-	.	.
.	.	2B-\	.	.	.	.	.	.	.
=4	=4	=4	=4	=4	=4	=4	=4	=4	=4
0r	.	1G	.	0r	.	0d	-gretz,	1dd	-fons
.	.	1G	et	.	.	.	.	1dd	re-
=5	=5	=5	=5	=5	=5	=5	=5	=5	=5
0r	.	1A	la-	0r	.	1r	.	1.cc	-gretz
.	.	1A	-men-	.	.	1f	par-	.	.
.	.	.	.	.	.	.	.	2b-\	.
=6	=6	=6	=6	=6	=6	=6	=6	=6	=6
0r	.	1c	-ta-	0r	.	1e	-fons	0g	.
.	.	1c	-ble	.	.	1e	re-	.	.
=7	=7	=7	=7	=7	=7	=7	=7	=7	=7
0GG	Par-	2B-\	joy-	0r	.	0d	-gretz,	1r	.
.	.	2G/	.	.	.	.	.	.	.
.	.	1B-	.	.	.	.	.	1g	et
=8	=8	=8	=8	=8	=8	=8	=8	=8	=8
1D	-fons	0A	-e,	0r	.	1r	.	1.a	la-
1D	re-	.	.	.	.	1f	par-	.	.
.	.	.	.	.	.	.	.	2b-\	-men-
=9	=9	=9	=9	=9	=9	=9	=9	=9	=9
1.C	-gretz,	0r	.	0r	.	1e	-fons	1cc	-ta-
.	.	.	.	.	.	1e	re-	1cc	-ble
2BB-/	.	.	.	.	.	.	.	.	.
=10	=10	=10	=10	=10	=10	=10	=10	=10	=10
0GG	.	1r	.	0G	Par-	2d\	-gretz	1.b-	joy-
.	.	.	.	.	.	2g\	et	.	.
.	.	1G	et	.	.	2g\	la-	.	.
.	.	.	.	.	.	2g\	-men-	4a/	.
.	.	.	.	.	.	.	.	4g/	.
=11	=11	=11	=11	=11	=11	=11	=11	=11	=11
1r	.	1D	la-	1d	-fons	1f	-ta-	2a/	-e,
.	.	.	.	.	.	.	.	2a/	et
1GG	et	1G	-men-	1d	re-	1g	-ble	2b-\	la-
.	.	.	.	.	.	.	.	2b-\	-men-
=12	=12	=12	=12	=12	=12	=12	=12	=12	=12
1.AA	la-	1C	-ta-	1.c	-gretz	2.e\	joy-	2cc\	-ta-
.	.	.	.	.	.	.	.	2a/	-ble
.	.	.	.	.	.	4c\	.	.	.
.	.	1C	-ble	.	.	1c	-e,	[1cc	joy-
2BB-/	-men-	.	.	2B-\	.	.	.	.	.
=13	=13	=13	=13	=13	=13	=13	=13	=13	=13
1C	-ta-	0E-	joy-	0G	.	1r	.	2cc\]	.
.	.	.	.	.	.	.	.	2b-\	.
1C	-ble	.	.	.	.	1c	et	1g	-e,
=14	=14	=14	=14	=14	=14	=14	=14	=14	=14
2BB-/	joy-	1D	-e,	1r	.	1d	la-	2r	.
2GG/	.	.	.	.	.	.	.	2b-\	et
1BB-	.	2r	.	1G	et	1d	-men-	2b-\	la-
.	.	2D/	et	.	.	.	.	2b-\	-men-
=15	=15	=15	=15	=15	=15	=15	=15	=15	=15
0AA	-e,	1F	la-	1.A	la-	1c	-ta-	2cc\	-ta-
.	.	.	.	.	.	.	.	2a/	-ble
.	.	1E	-men-	.	.	1c	-ble	[1cc	joy-
.	.	.	.	2B-\	-men-	.	.	.	.
=16	=16	=16	=16	=16	=16	=16	=16	=16	=16
0r	.	1C	-ta-	1c	-ta-	0e-	joy-	2cc\]	.
.	.	.	.	.	.	.	.	2b-\	.
.	.	1C	-ble	1c	-ble	.	.	2.g/	.
.	.	.	.	.	.	.	.	4a/	.
=17	=17	=17	=17	=17	=17	=17	=17	=17	=17
0GG	Ve-	0G	joy-	2B-\	joy-	1d	-e,	4b-\	.
.	.	.	.	.	.	.	.	4cc\	.
.	.	.	.	2G/	.	.	.	1b-	.
.	.	.	.	1B-	.	2r	.	.	.
.	.	.	.	.	.	2d\	Ve-	4a/	.
.	.	.	.	.	.	.	.	4g/	.
=18	=18	=18	=18	=18	=18	=18	=18	=18	=18
1D	-nez	1F	-e,	0A	-e,	1f	-nez,	1a	-e,
1D	a	2r	.	.	.	2r	.	2r	.
.	.	2F/	Ve-	.	.	2d\	ve-	2a/	Ve-
=19	=19	=19	=19	=19	=19	=19	=19	=19	=19
1.C	moy	1G	-nez,	0r	.	1e	-nez	1cc	-nez
.	.	2.E/	a	.	.	1e	a	1cc	a
2BB-/	.	.	.	.	.	.	.	.	.
.	.	4F/	.	.	.	.	.	.	.
=20	=20	=20	=20	=20	=20	=20	=20	=20	=20
0GG	.	1G	moy	0G	Ve-	2d\	moy	0b-	moy
.	.	.	.	.	.	2g\	quel-	.	.
.	.	2r	.	.	.	2g\	-que	.	.
.	.	2G/	quel-	.	.	2g\	part	.	.
=21	=21	=21	=21	=21	=21	=21	=21	=21	=21
1r	.	1D	-que	1d	-nez	1f	que	2r	.
.	.	.	.	.	.	.	.	2a/	quel-
1GG	quel-	1G	part	1d	a	1g	je	2b-\	-que
.	.	.	.	.	.	.	.	2b-\	part
=22	=22	=22	=22	=22	=22	=22	=22	=22	=22
1.AA	-que	1C	-que	1.c	moy	2.e\	soy-	2cc\	que
.	.	.	.	.	.	.	.	2a/	je
.	.	.	.	.	.	4c\	.	.	.
.	.	1C	je	.	.	1c	-e,	[1cc	soy-
2BB-/	part	.	.	2B-\	.	.	.	.	.
=23	=23	=23	=23	=23	=23	=23	=23	=23	=23
1C	que	0E-	soy-	0G	.	1r	.	2cc\]	.
.	.	.	.	.	.	.	.	2b-\	.
1C	je	.	.	.	.	1c	quel-	1g	-e,
=24	=24	=24	=24	=24	=24	=24	=24	=24	=24
2BB-/	soy-	1D	-e,	1r	.	1d	-que	2r	.
2GG/	.	.	.	.	.	.	.	2b-\	quel-
1BB-	.	2r	.	1G	quel-	1d	part	2b-\	-que
.	.	2D/	quel-	.	.	.	.	2b-\	part
=25	=25	=25	=25	=25	=25	=25	=25	=25	=25
0AA	-e,	1F	-que	1.A	-que	1c	que	2cc\	que
.	.	.	.	.	.	.	.	2a/	je
.	.	1E	part	.	.	1c	je	[1cc	soy-
.	.	.	.	2B-\	part	.	.	.	.
=26	=26	=26	=26	=26	=26	=26	=26	=26	=26
0r	.	1C	que	1c	que	0e-	soy-	2cc\]	.
.	.	.	.	.	.	.	.	2b-\	.
.	.	1C	je	1c	je	.	.	2.g/	.
.	.	.	.	.	.	.	.	4a/	.
=27	=27	=27	=27	=27	=27	=27	=27	=27	=27
0r	.	0G	soy-	2B-\	soy-	0d	-e,	4b-\	.
.	.	.	.	.	.	.	.	4cc\	.
.	.	.	.	2G/	.	.	.	1b-	.
.	.	.	.	1B-	.	.	.	.	.
.	.	.	.	.	.	.	.	4a/	.
.	.	.	.	.	.	.	.	4g/	.
=28	=28	=28	=28	=28	=28	=28	=28	=28	=28
0D	Et	0F	-e,	0A	-e,	1r	.	1a	-e,
.	.	.	.	.	.	1f	Et	2r	.
.	.	.	.	.	.	.	.	2a/	Et
=29	=29	=29	=29	=29	=29	=29	=29	=29	=29
1G	vous	1r	.	0r	.	1g	vous	1b-	vous
1G	has-	2.B-\	Et	.	.	2.d\	has-	1b-	has-
.	.	4c\	.	.	.	4e\	.	.	.
=30	=30	=30	=30	=30	=30	=30	=30	=30	=30
1F	-tez	2d\	vous	0r	.	0f	-tez	0a	-tez
.	.	1c	has-	.	.	.	.	.	.
1F	sans	.	.	.	.	.	.	.	.
.	.	4B-\	.	.	.	.	.	.	.
.	.	4A/	.	.	.	.	.	.	.
=31	=31	=31	=31	=31	=31	=31	=31	=31	=31
1G	point	2B-\	-tez	0d	Et	2r	.	0r	.
.	.	2G/	sans	.	.	2B-\	sans	.	.
2F\	dis-	2A/	point	.	.	2A/	point	.	.
[2G\	-si-	[2B-\	dis-	.	.	4G/	dis-	.	.
.	.	.	.	.	.	4A/	.	.	.
=32	=32	=32	=32	=32	=32	=32	=32	=32	=32
4G\]	.	4B-\]	.	1g	vous	4B-\	.	0r	.
4F\	.	4A/	.	.	.	4c\	.	.	.
4E\	.	4G/	-si-	.	.	2.d\	-si-	.	.
4D\	.	4F/	.	.	.	.	.	.	.
2E\	.	1G	-mu-	1g	has-	.	.	.	.
.	.	.	.	.	.	4c#i\	.	.	.
2E\	-mu-	.	.	.	.	4c#i\	-mu-	.	.
.	.	.	.	.	.	4Bni\	.	.	.
=33	=33	=33	=33	=33	=33	=33	=33	=33	=33
0D	-ler,	0A	-ler,	1f	-tez	0d	-ler,	1r	.
.	.	.	.	1f	sans	.	.	1a	sans
=34	=34	=34	=34	=34	=34	=34	=34	=34	=34
0r	.	2r	.	1g	point	0r	.	1b-	point
.	.	2G/	sans	.	.	.	.	.	.
.	.	2d\	point	2f\	dis-	.	.	2a/	dis-
.	.	2B-\	dis-	[2g\	-si-	.	.	[2b-\	-si-
=35	=35	=35	=35	=35	=35	=35	=35	=35	=35
0r	.	2.G/	-si-	4g\]	.	0r	.	4b-\]	.
.	.	.	.	4f\	.	.	.	4cc\	.
.	.	.	.	4e\	.	.	.	2.dd\	.
.	.	4B-\	.	4d\	.	.	.	.	.
.	.	1A	-mu-	2e\	.	.	.	.	.
.	.	.	.	.	.	.	.	4cc#i\	.
.	.	.	.	2e\	-mu-	.	.	4cc#i\	-mu-
.	.	.	.	.	.	.	.	4bni\	.
=36	=36	=36	=36	=36	=36	=36	=36	=36	=36
0D	Pour	1D	-ler,	0d	-ler,	1r	.	1dd	-ler,
.	.	[1d	Pour	.	.	1f	Pour	2r	.
.	.	.	.	.	.	.	.	2a/	Pour
=37	=37	=37	=37	=37	=37	=37	=37	=37	=37
1G	promp-	1d]	.	0r	.	1g	promp-	1b-	promp-
1G	-te-	1B-	.	.	.	2.d\	-te-	1b-	-te-
.	.	.	.	.	.	4e\	.	.	.
=38	=38	=38	=38	=38	=38	=38	=38	=38	=38
1F	-ment	1c	promp-	0r	.	0f	-ment	0a	-ment
1F	mon	1A	-te-	.	.	.	.	.	.
=39	=39	=39	=39	=39	=39	=39	=39	=39	=39
1G	cueur	2B-\	-ment	0d	Pour	2r	.	0r	.
.	.	2G/	mon	.	.	2B-\	mon	.	.
2F\	ex-	2A/	cueur	.	.	2A/	cueur	.	.
[2G\	-e-	[2B-\	ex-	.	.	4G/	ex-	.	.
.	.	.	.	.	.	4A/	.	.	.
=40	=40	=40	=40	=40	=40	=40	=40	=40	=40
4G\]	.	4B-\]	.	1g	promp-	4B-\	.	0r	.
4F\	.	4A/	.	.	.	4c\	.	.	.
4E\	.	4G/	-e-	.	.	2.d\	-e-	.	.
4D\	.	4F/	.	.	.	.	.	.	.
2E\	.	1G	-cu-	1g	-te-	.	.	.	.
.	.	.	.	.	.	4c#i\	.	.	.
2E\	-cu-	.	.	.	.	4c#i\	-cu-	.	.
.	.	.	.	.	.	4Bni\	.	.	.
=41	=41	=41	=41	=41	=41	=41	=41	=41	=41
0D	-ter,	0A	-ter,	1f	-ment	0d	-ter,	1r	.
.	.	.	.	1f	mon	.	.	1a	mon
=42	=42	=42	=42	=42	=42	=42	=42	=42	=42
0r	.	2r	.	1g	cuer	0r	.	1b-	cuer
.	.	2G/	mon	.	.	.	.	.	.
.	.	2d\	cueur	2f\	ex-	.	.	2a/	ex-
.	.	2B-\	ex-	[2g\	-e-	.	.	[2b-\	-e-
=43	=43	=43	=43	=43	=43	=43	=43	=43	=43
0r	.	2.G/	-e-	4g\]	.	0r	.	4b-\]	.
.	.	.	.	4f\	.	.	.	4cc\	.
.	.	.	.	4e\	.	.	.	2.dd	.
.	.	4B-\	.	4d\	.	.	.	.	.
.	.	1A	-cu-	2e\	.	.	.	.	.
.	.	.	.	.	.	.	.	4cc#i\	.
.	.	.	.	2e\	-cu-	.	.	4cc#i\	-cu-
.	.	.	.	.	.	.	.	4bni\	.
=44	=44	=44	=44	=44	=44	=44	=44	=44	=44
1r	.	0D	-ter,	0d	-ter,	0r	.	1dd	-ter,
1F	Af-	.	.	.	.	.	.	2r	.
.	.	.	.	.	.	.	.	2a/	Af-
=45	=45	=45	=45	=45	=45	=45	=45	=45	=45
1G	-fin	1r	.	0r	.	0r	.	1b-	-fin
1G	qu'en	1d	Af-	.	.	.	.	1b-	qu'en
=46	=46	=46	=46	=46	=46	=46	=46	=46	=46
1A	dueil	1f	-fin	0r	.	0r	.	1a	dueil
1A	et	1e	qu'en	.	.	.	.	1cc	et
=47	=47	=47	=47	=47	=47	=47	=47	=47	=47
1.B-	lar-	0d	dueil	1r	.	1r	.	1.dd	lar-
.	.	.	.	1f	Af-	1d	Af-	.	.
2A\	-mes	.	.	.	.	.	.	2cc\	-mes
=48	=48	=48	=48	=48	=48	=48	=48	=48	=48
2G\	il	0r	.	1g	-fin	1d	-fin	2b-\	il
2F\	se	.	.	.	.	.	.	2a/	se
1E	noy-	.	.	1g	qu'en	1e	qu'en	1g	noy-
=49	=49	=49	=49	=49	=49	=49	=49	=49	=49
0D	-e,	1r	.	1a	dueil	1f	dueil	0f	-e,
.	.	1d	et	1a	et	2r	.	.	.
.	.	.	.	.	.	2f\	et	.	.
=50	=50	=50	=50	=50	=50	=50	=50	=50	=50
0r	.	1.G	lar-	1.b-	lar-	1.g	lar-	0r	.
.	.	4A/	-mes	2a\	-mes	2f\	-mes	.	.
.	.	4B-\	.	.	.	.	.	.	.
=51	=51	=51	=51	=51	=51	=51	=51	=51	=51
0r	.	2c\	il	2g\	il	2e\	il	0r	.
.	.	2d\	se	2f\	se	2d\	se	.	.
.	.	1A	noy-	1e	noy-	1c#i	noy-	.	.
=52	=52	=52	=52	=52	=52	=52	=52	=52	=52
0BB-	af-	0D	-e,	0d	-e,	1d	-e,	0r	.
.	.	.	.	.	.	2r	.	.	.
.	.	.	.	.	.	2d\	af-	.	.
=53	=53	=53	=53	=53	=53	=53	=53	=53	=53
1C	-fin	1r	.	0r	.	1e-i	-fin	0r	.
1C	qu'en	1G	af-	.	.	1e-i	qu'en	.	.
=54	=54	=54	=54	=54	=54	=54	=54	=54	=54
1D	dueil	1B-	-fin	0r	.	1d	dueil	0r	.
1D	et	1A	qu'en	.	.	1f	et	.	.
=55	=55	=55	=55	=55	=55	=55	=55	=55	=55
1.E-	lar-	0G	dueil	0B-	af-	1.g	lar-	1r	.
.	.	.	.	.	.	.	.	1g	af-
2D\	-mes	.	.	.	.	2f\	-mes	.	.
=56	=56	=56	=56	=56	=56	=56	=56	=56	=56
2C/	il	0r	.	1c	-fin	2e-i\	il	1g	-fin
2BB-/	se	.	.	.	.	2d\	se	.	.
1AA	noy-	.	.	1c	qu'en	1c	noy-	1a	qu'en
=57	=57	=57	=57	=57	=57	=57	=57	=57	=57
0GG	-e,	1r	.	1d	dueil	0B-	-e,	1b-	dueil
.	.	1G	et	1d	et	.	.	1b-	et
=58	=58	=58	=58	=58	=58	=58	=58	=58	=58
0r	.	1.g	lar-	1.e-	lar-	0r	.	1.cc	lar-
.	.	2f\	-mes	2d\	-mes	.	.	2b-\	-mes
=59	=59	=59	=59	=59	=59	=59	=59	=59	=59
0r	.	2e-i\	il	2c\	il	0r	.	2a/	il
.	.	2d\	se	2B-\	se	.	.	2g/	se
.	.	1c	noy-	1A	noy-	.	.	4f#i/	noy-
.	.	.	.	.	.	.	.	4g/	.
.	.	.	.	.	.	.	.	4a/	.
.	.	.	.	.	.	.	.	4f#i/	.
=60	=60	=60	=60	=60	=60	=60	=60	=60	=60
!	!	!	!	!LO:N:vis=0	!	!	!	!	!
1r	.	1d	-e,	[0Gl	-e.	1r	.	0g	-e,
1GG	af-	2r	.	.	.	1B-	af-	.	.
.	.	2d\	af-	.	.	.	.	.	.
=61	=61	=61	=61	=61	=61	=61	=61	=61	=61
1C	-fin	1e-i	-fin	0G_	.	1c	-fin	1r	.
1C	qu'en	1e-i	qu'en	.	.	1c	qu'en	1g	af-
=62	=62	=62	=62	=62	=62	=62	=62	=62	=62
1GG	dueil	1d	dueil	0G_	.	1B-	dueil	1b-	-fin
2r	.	2r	.	.	.	2r	.	1b-	qu'en
2GG/	et	2d\	et	.	.	2B-\	et	.	.
=63	=63	=63	=63	=63	=63	=63	=63	=63	=63
1.C	lar-	1.e-i	lar-	0G_	.	1.c	lar-	1g	dueil
.	.	.	.	.	.	.	.	2r	.
2C/	-mes	2e-i\	-mes	.	.	2c\	-mes	2g/	et
=64	=64	=64	=64	=64	=64	=64	=64	=64	=64
2BB-/	il	2d\	il	0G_	.	2d\	il	2b-\	lar-
2GG/	se	2d\	se	.	.	2B-\	se	2b-\	-mes
2.C/	noy-	1e-i	noy-	.	.	1c	noy-	2g/	il
.	.	.	.	.	.	.	.	2g/	se
4BB-/	.	.	.	.	.	.	.	.	.
=65	=65	=65	=65	=65	=65	=65	=65	=65	=65
[0GGl	-e.	[0dl	-e.	0G_	.	[0B-l	-e.	1.b-	noy-
.	.	.	.	.	.	.	.	2g/	.
=66	=66	=66	=66	=66	=66	=66	=66	=66	=66
0GG]	.	0d]	.	0G]	.	0B-]	.	0gl	-e.
==	==	==	==	==	==	==	==	==	==
*-	*-	*-	*-	*-	*-	*-	*-	*-	*-
!!!RDF**kern: l=long note in original notation
!!!RDF**kern: i=editorial accidental
!!!ENC: Will Watson 09/12/2011
!!!END: 2011/12/09/
!!!EED: Jesse Rodin
!!!EEV: 2012/01/22/
!!attribution-level@Jos: 2 (provisionally attributable [parentheses checkmark])
!!!ONB: Translated from MusicXML and edited on 2012/01/22/ by Craig Sapp
!!muse2ps:  C^@{COM}\n@{SCT}^i2I150v75,75,75,75,110c125z18l2780t100
